/* XPM */
static char *earth_xpm[] = {
"32 32 6 1",
"  c #000000",
". c #0000FF",
"X c #00FF00",
"o c #FFFF00",
"O c #FFFFFF",
"+ c #FF0000",
"                                ",
"          XXXXXXXXXX            ",
"        XXXXXXXXXXXXXX          ",
"       XXXXXXXXXXXXXXXX         ",
"      XXXXXXXXXXXXXXXXXX        ",
"     XXXXXXXXXXXXXXXXXXXX       ",
"    XXXXXXXXXXXXXXXXXXXXXX      ",
"    XXXXXXXXXXXXXXXXXXXXXX      ",
"   XXXXXXXXXXXXXXXXXXXXXXXX     ",
"   XXXXXXXXXXXXXXXXXXXXXXXX     ",
"  XXXXXXXXXXXXXXXXXXXXXXXXXX    ",
"  XXXXXXXXXXXXXXXXXXXXXXXXXX    ",
"  XXXXXXXXXXXXXXXXXXXXXXXXXX    ",
"  XXXXXXXXXXXXXXXXXXXXXXXXXX    ",
"  XXXXXXXXXXXXXXXXXXXXXXXXXX    ",
"  XXXXXXXXXXXXXXXXXXXXXXXXXX    ",
"  XXXXXXXXXXXXXXXXXXXXXXXXXX    ",
"  XXXXXXXXXXXXXXXXXXXXXXXXXX    ",
"  XXXXXXXXXXXXXXXXXXXXXXXXXX    ",
"  XXXXXXXXXXXXXXXXXXXXXXXXXX    ",
"   XXXXXXXXXXXXXXXXXXXXXXXX     ",
"   XXXXXXXXXXXXXXXXXXXXXXXX     ",
"    XXXXXXXXXXXXXXXXXXXXXX      ",
"    XXXXXXXXXXXXXXXXXXXXXX      ",
"     XXXXXXXXXXXXXXXXXXXX       ",
"      XXXXXXXXXXXXXXXXXX        ",
"       XXXXXXXXXXXXXXXX         ",
"        XXXXXXXXXXXXXX          ",
"          XXXXXXXXXX            ",
"                                ",
"                                ",
"                                "
};
